assets/logo-dark.svg

<svg width="1635" height="171" viewBox="0 0 1635 171" fill="none" xmlns="http://www.w3.org/2000/svg">
<path d="M692.678 132.408C668.655 132.408 651.404 114.511 651.404 89.8433C651.404 65.3364 668.655 47.6012 692.034 47.6012C715.412 47.6012 732.825 65.3364 732.825 89.8433C732.825 91.1332 732.663 93.0679 732.502 94.6802H669.945C671.719 107.901 681.07 117.091 693.323 117.091C702.03 117.091 710.091 112.415 714.122 105.483L728.633 114.834C721.377 125.314 707.35 132.408 692.678 132.408ZM670.751 80.9757H713.477C710.575 70.1733 702.352 62.918 692.034 62.918C681.715 62.918 673.653 70.1733 670.751 80.9757Z" fill="white"/>
<path d="M615.717 132.136V49.7158H634.414V136.555C634.414 147.943 632.204 156.272 627.615 161.201C622.345 167.15 615.037 170.04 605.688 170.04L600.589 153.213C606.198 153.213 610.107 151.683 612.317 148.623C614.527 145.394 615.717 139.955 615.717 132.136Z" fill="white"/>
<path d="M636.775 18.937C636.775 25.4245 631.516 30.6837 625.028 30.6837C618.541 30.6837 613.282 25.4245 613.282 18.937C613.282 12.4494 618.541 7.19024 625.028 7.19024C631.516 7.19024 636.775 12.4494 636.775 18.937Z" fill="white"/>
<path d="M755.271 18.9323H773.973V49.6972H790.258V65.014H773.973V130.312H755.271V65.014H742.103V49.6972H755.271V18.9323Z" fill="white"/>
<path fill-rule="evenodd" clip-rule="evenodd" d="M356.464 130.312L371.585 99.7003H429.069L444.006 130.312H463.512L400.326 1.05191L337.14 130.312H356.464ZM379.419 83.6912L400.326 41.0897L421.232 83.6912H379.419Z" fill="white"/>
<path d="M597.799 77.2245C591.947 69.7626 584.881 63.7125 571.685 63.7125C557.98 63.7125 547.984 74.6877 547.984 90.0045C547.984 105.16 557.98 116.285 571.685 116.285C584.881 116.285 591.947 110.095 597.799 102.649V123.858C590.769 129.243 581.816 132.408 571.685 132.408C547.339 132.408 529.765 114.511 529.765 90.0045C529.765 65.3364 547.339 47.6011 571.685 47.6011C581.782 47.6011 590.782 50.6715 597.799 56.0248V77.2245Z" fill="white"/>
<path d="M493.025 130.312H474.37V49.7368H493.025V57.4568C496.619 53.4299 499.61 51.076 502.04 49.931C504.916 48.5761 508.094 47.702 511.826 47.702C515.557 47.702 521.857 49.228 527.115 52.4504L518.635 69.4102C515.073 66.8662 511.681 65.679 508.289 65.679C498.113 65.679 493.025 73.311 493.025 88.5748V130.312Z" fill="white"/>
<path d="M241.07 73.6211C253.035 76.6786 262.925 79.1296 283.509 83.6942C262.925 88.2589 253.035 90.7098 241.07 93.7673C237.043 94.7961 233.896 97.9428 232.867 101.969C229.81 113.931 227.359 123.825 222.795 144.409C218.23 123.825 215.779 113.931 212.722 101.969C211.693 97.9428 208.546 94.7961 204.52 93.7673C192.554 90.7098 182.665 88.2589 162.08 83.6942C182.665 79.1296 192.554 76.6786 204.52 73.6211C208.546 72.5923 211.693 69.4457 212.722 65.4195C215.779 53.4575 218.23 43.5633 222.795 22.9799C227.359 43.5633 229.81 53.4575 232.867 65.4195C233.896 69.4457 237.043 72.5923 241.07 73.6211Z" fill="white"/>
<path fill-rule="evenodd" clip-rule="evenodd" d="M130.358 80.3549L133.747 83.6941L130.358 87.0335C99.1557 84.7746 69.7596 84.4554 22.3959 83.9411C15.4021 83.8651 8.0166 83.7849 0.175659 83.6936C7.89859 83.6039 15.1797 83.5248 22.0798 83.4499C69.6289 82.9336 99.0861 82.6138 130.358 80.3549Z" fill="white"/>
<path d="M846.661 149.727L893.698 8.10266H904.946L858.25 149.727H846.661Z" fill="#2F2C36"/>
<path d="M971.998 128.017V45.9999H980.669V128.017H971.998ZM980.083 128.017V120.167H1019.92V128.017H980.083ZM980.083 89.7035V81.8533H1016.76V89.7035H980.083ZM980.083 53.8502V45.9999H1019.8V53.8502H980.083ZM1031.14 128.017L1055.05 94.2731L1071.92 69.4335H1081.76L1059.62 100.952L1041.22 128.017H1031.14ZM1073.21 128.017L1055.05 100.952L1032.67 69.4335H1042.51L1059.38 94.2731L1083.17 128.017H1073.21ZM1128.74 128.017L1128.15 118.761V96.8508C1128.15 92.086 1127.61 88.1413 1126.51 85.0168C1125.42 81.8142 1123.74 79.4318 1121.47 77.8696C1119.21 76.3073 1116.24 75.5262 1112.57 75.5262C1109.05 75.5262 1105.97 76.2292 1103.31 77.6353C1100.73 79.0413 1098.66 81.1893 1097.1 84.0795L1089.72 80.916C1091.36 78.182 1093.28 75.8387 1095.46 73.8859C1097.65 71.9331 1100.19 70.488 1103.08 69.5507C1105.97 68.5352 1109.13 68.0275 1112.57 68.0275C1117.96 68.0275 1122.37 69.082 1125.81 71.191C1129.32 73.3 1131.94 76.4636 1133.66 80.6816C1135.46 84.8997 1136.35 90.1722 1136.35 96.4993V128.017H1128.74ZM1110.93 129.423C1104.05 129.423 1098.66 127.861 1094.76 124.737C1090.93 121.534 1089.02 117.121 1089.02 111.497C1089.02 105.638 1090.97 101.108 1094.88 97.9053C1098.78 94.7027 1104.21 93.1014 1111.16 93.1014H1128.39V100.249H1112.8C1107.26 100.249 1103.27 101.225 1100.85 103.178C1098.43 105.131 1097.22 107.865 1097.22 111.38C1097.22 114.738 1098.43 117.355 1100.85 119.23C1103.27 121.105 1106.63 122.042 1110.93 122.042C1114.52 122.042 1117.61 121.261 1120.18 119.699C1122.76 118.058 1124.72 115.832 1126.04 113.02C1127.45 110.13 1128.15 106.81 1128.15 103.061H1134.13C1134.13 111.028 1132.1 117.433 1128.03 122.276C1124.05 127.041 1118.35 129.423 1110.93 129.423ZM1151.69 128.017V69.4335H1159.3L1159.77 80.2129V128.017H1151.69ZM1193.28 128.017V98.0225L1201.49 94.5074V128.017H1193.28ZM1234.88 128.017V98.0225L1243.08 94.5074V128.017H1234.88ZM1193.28 98.0225C1193.28 91.8516 1192.54 87.204 1191.06 84.0795C1189.65 80.8769 1187.7 78.6898 1185.2 77.5181C1182.7 76.2683 1179.89 75.6434 1176.76 75.6434C1171.45 75.6434 1167.27 77.5962 1164.23 81.5018C1161.26 85.4074 1159.77 90.8362 1159.77 97.7881H1155.32C1155.32 91.5392 1156.22 86.2276 1158.02 81.8533C1159.81 77.4009 1162.43 74.003 1165.87 71.6597C1169.3 69.2382 1173.48 68.0275 1178.4 68.0275C1185.43 68.0275 1191.06 70.2146 1195.28 74.5889C1199.49 78.9632 1201.56 85.6027 1201.49 94.5074L1193.28 98.0225ZM1234.88 98.0225C1234.88 91.8516 1234.14 87.204 1232.65 84.0795C1231.25 80.8769 1229.29 78.6898 1226.79 77.5181C1224.37 76.2683 1221.56 75.6434 1218.36 75.6434C1213.05 75.6434 1208.91 77.5962 1205.94 81.5018C1202.97 85.4074 1201.49 90.8362 1201.49 97.7881H1197.03C1197.03 91.5392 1197.89 86.2276 1199.61 81.8533C1201.41 77.4009 1204.02 74.003 1207.46 71.6597C1210.9 69.2382 1215.08 68.0275 1220 68.0275C1227.03 68.0275 1232.65 70.2146 1236.87 74.5889C1241.09 78.9632 1243.16 85.6027 1243.08 94.5074L1234.88 98.0225ZM1259.03 151.451V69.4335H1266.65L1267.11 80.2129V151.451H1259.03ZM1287.39 129.423C1282.46 129.423 1278.09 128.135 1274.26 125.557C1270.51 122.901 1267.58 119.269 1265.47 114.66C1263.44 109.974 1262.43 104.662 1262.43 98.7255C1262.43 92.7109 1263.44 87.3992 1265.47 82.7906C1267.58 78.182 1270.51 74.5889 1274.26 72.0112C1278.09 69.3554 1282.46 68.0275 1287.39 68.0275C1292.54 68.0275 1297.11 69.3554 1301.09 72.0112C1305.08 74.5889 1308.2 78.182 1310.47 82.7906C1312.73 87.3992 1313.86 92.7109 1313.86 98.7255C1313.86 104.662 1312.73 109.974 1310.47 114.66C1308.2 119.269 1305.08 122.901 1301.09 125.557C1297.11 128.135 1292.54 129.423 1287.39 129.423ZM1285.63 122.042C1289.53 122.042 1292.97 121.065 1295.94 119.113C1298.91 117.082 1301.25 114.309 1302.97 110.794C1304.69 107.279 1305.55 103.256 1305.55 98.7255C1305.55 94.195 1304.69 90.1722 1302.97 86.6572C1301.33 83.1421 1299.02 80.4082 1296.06 78.4554C1293.09 76.4245 1289.65 75.4091 1285.74 75.4091C1282.15 75.4091 1278.95 76.4245 1276.14 78.4554C1273.32 80.4082 1271.1 83.1421 1269.46 86.6572C1267.9 90.1722 1267.11 94.195 1267.11 98.7255C1267.11 103.256 1267.9 107.279 1269.46 110.794C1271.1 114.309 1273.29 117.082 1276.02 119.113C1278.83 121.065 1282.03 122.042 1285.63 122.042ZM1327.44 128.017V45.9999H1335.53V128.017H1327.44ZM1378.04 129.423C1372.42 129.423 1367.42 128.135 1363.04 125.557C1358.67 122.901 1355.23 119.269 1352.73 114.66C1350.31 110.052 1349.1 104.74 1349.1 98.7255C1349.1 92.7109 1350.31 87.3992 1352.73 82.7906C1355.23 78.182 1358.63 74.5889 1362.92 72.0112C1367.22 69.3554 1372.14 68.0275 1377.69 68.0275C1383.16 68.0275 1387.84 69.3944 1391.75 72.1284C1395.65 74.7842 1398.66 78.5335 1400.77 83.3765C1402.96 88.1413 1404.05 93.6873 1404.05 100.014H1395.73C1395.73 95.0152 1395.03 90.719 1393.62 87.1259C1392.29 83.4546 1390.26 80.6035 1387.53 78.5726C1384.87 76.5417 1381.55 75.5262 1377.57 75.5262C1373.59 75.5262 1370.07 76.5026 1367.03 78.4554C1363.98 80.4082 1361.6 83.1421 1359.88 86.6572C1358.16 90.0941 1357.3 94.1559 1357.3 98.8426C1357.3 103.373 1358.2 107.396 1360 110.911C1361.87 114.348 1364.37 117.043 1367.49 118.996C1370.62 120.948 1374.21 121.925 1378.27 121.925C1382.57 121.925 1386.2 120.87 1389.17 118.761C1392.22 116.652 1394.56 113.918 1396.2 110.559L1403.35 114.543C1401.79 117.433 1399.79 120.011 1397.37 122.276C1395.03 124.541 1392.22 126.299 1388.94 127.549C1385.66 128.799 1382.02 129.423 1378.04 129.423ZM1354.61 100.014V92.7499H1398.66V100.014H1354.61ZM1481.73 128.017L1481.14 118.761V96.8508C1481.14 92.086 1480.6 88.1413 1479.5 85.0168C1478.41 81.8142 1476.73 79.4318 1474.46 77.8696C1472.2 76.3073 1469.23 75.5262 1465.56 75.5262C1462.04 75.5262 1458.96 76.2292 1456.3 77.6353C1453.73 79.0413 1451.66 81.1893 1450.09 84.0795L1442.71 80.916C1444.35 78.182 1446.27 75.8387 1448.45 73.8859C1450.64 71.9331 1453.18 70.488 1456.07 69.5507C1458.96 68.5352 1462.12 68.0275 1465.56 68.0275C1470.95 68.0275 1475.36 69.082 1478.8 71.191C1482.31 73.3 1484.93 76.4636 1486.65 80.6816C1488.45 84.8997 1489.34 90.1722 1489.34 96.4993V128.017H1481.73ZM1463.92 129.423C1457.05 129.423 1451.66 127.861 1447.75 124.737C1443.92 121.534 1442.01 117.121 1442.01 111.497C1442.01 105.638 1443.96 101.108 1447.87 97.9053C1451.77 94.7027 1457.2 93.1014 1464.15 93.1014H1481.38V100.249H1465.79C1460.25 100.249 1456.26 101.225 1453.84 103.178C1451.42 105.131 1450.21 107.865 1450.21 111.38C1450.21 114.738 1451.42 117.355 1453.84 119.23C1456.26 121.105 1459.62 122.042 1463.92 122.042C1467.51 122.042 1470.6 121.261 1473.18 119.699C1475.75 118.058 1477.71 115.832 1479.03 113.02C1480.44 110.13 1481.14 106.81 1481.14 103.061H1487.12C1487.12 111.028 1485.09 117.433 1481.03 122.276C1477.04 127.041 1471.34 129.423 1463.92 129.423ZM1505.27 151.451V69.4335H1512.88L1513.35 80.2129V151.451H1505.27ZM1533.62 129.423C1528.7 129.423 1524.33 128.135 1520.5 125.557C1516.75 122.901 1513.82 119.269 1511.71 114.66C1509.68 109.974 1508.66 104.662 1508.66 98.7255C1508.66 92.7109 1509.68 87.3992 1511.71 82.7906C1513.82 78.182 1516.75 74.5889 1520.5 72.0112C1524.33 69.3554 1528.7 68.0275 1533.62 68.0275C1538.78 68.0275 1543.35 69.3554 1547.33 72.0112C1551.31 74.5889 1554.44 78.182 1556.7 82.7906C1558.97 87.3992 1560.1 92.7109 1560.1 98.7255C1560.1 104.662 1558.97 109.974 1556.7 114.66C1554.44 119.269 1551.31 122.901 1547.33 125.557C1543.35 128.135 1538.78 129.423 1533.62 129.423ZM1531.86 122.042C1535.77 122.042 1539.21 121.065 1542.17 119.113C1545.14 117.082 1547.49 114.309 1549.2 110.794C1550.92 107.279 1551.78 103.256 1551.78 98.7255C1551.78 94.195 1550.92 90.1722 1549.2 86.6572C1547.56 83.1421 1545.26 80.4082 1542.29 78.4554C1539.32 76.4245 1535.89 75.4091 1531.98 75.4091C1528.39 75.4091 1525.18 76.4245 1522.37 78.4554C1519.56 80.4082 1517.33 83.1421 1515.69 86.6572C1514.13 90.1722 1513.35 94.195 1513.35 98.7255C1513.35 103.256 1514.13 107.279 1515.69 110.794C1517.33 114.309 1519.52 117.082 1522.26 119.113C1525.07 121.065 1528.27 122.042 1531.86 122.042ZM1574.26 151.451V69.4335H1581.88L1582.35 80.2129V151.451H1574.26ZM1602.62 129.423C1597.7 129.423 1593.32 128.135 1589.49 125.557C1585.74 122.901 1582.82 119.269 1580.71 114.66C1578.68 109.974 1577.66 104.662 1577.66 98.7255C1577.66 92.7109 1578.68 87.3992 1580.71 82.7906C1582.82 78.182 1585.74 74.5889 1589.49 72.0112C1593.32 69.3554 1597.7 68.0275 1602.62 68.0275C1607.77 68.0275 1612.34 69.3554 1616.33 72.0112C1620.31 74.5889 1623.43 78.182 1625.7 82.7906C1627.96 87.3992 1629.1 92.7109 1629.1 98.7255C1629.1 104.662 1627.96 109.974 1625.7 114.66C1623.43 119.269 1620.31 122.901 1616.33 125.557C1612.34 128.135 1607.77 129.423 1602.62 129.423ZM1600.86 122.042C1604.77 122.042 1608.2 121.065 1611.17 119.113C1614.14 117.082 1616.48 114.309 1618.2 110.794C1619.92 107.279 1620.78 103.256 1620.78 98.7255C1620.78 94.195 1619.92 90.1722 1618.2 86.6572C1616.56 83.1421 1614.26 80.4082 1611.29 78.4554C1608.32 76.4245 1604.88 75.4091 1600.98 75.4091C1597.38 75.4091 1594.18 76.4245 1591.37 78.4554C1588.56 80.4082 1586.33 83.1421 1584.69 86.6572C1583.13 90.1722 1582.35 94.195 1582.35 98.7255C1582.35 103.256 1583.13 107.279 1584.69 110.794C1586.33 114.309 1588.52 117.082 1591.25 119.113C1594.06 121.065 1597.27 122.042 1600.86 122.042Z" fill="#BFB9C8"/>
</svg>

<svg xmlns="http://www.w3.org/2000/svg" width="1635" height="171" fill="none" viewBox="0 0 1635 171"><path fill="#fff" d="M692.678 132.408c-24.023 0-41.274-17.897-41.274-42.565 0-24.507 17.251-42.242 40.63-42.242 23.378 0 40.791 17.735 40.791 42.242 0 1.29-.162 3.225-.323 4.837h-62.557c1.774 13.221 11.125 22.411 23.378 22.411 8.707 0 16.768-4.676 20.799-11.608l14.511 9.351c-7.256 10.48-21.283 17.574-35.955 17.574m-21.927-51.432h42.726c-2.902-10.803-11.125-18.058-21.443-18.058s-18.381 7.255-21.283 18.058m-55.034 51.16v-82.42h18.697v86.839c0 11.388-2.21 19.717-6.799 24.646-5.27 5.949-12.578 8.839-21.927 8.839l-5.099-16.827q8.413 0 11.728-4.59c2.21-3.229 3.4-8.668 3.4-16.487m21.058-113.199c0 6.487-5.259 11.747-11.747 11.747s-11.746-5.26-11.746-11.747c0-6.488 5.259-11.747 11.746-11.747 6.488 0 11.747 5.26 11.747 11.747m118.496-.005h18.702v30.765h16.285v15.317h-16.285v65.298h-18.702V65.014h-13.168V49.697h13.168z"/><path fill="#fff" fill-rule="evenodd" d="M356.464 130.312 371.585 99.7h57.484l14.937 30.612h19.506L400.326 1.052l-63.186 129.26zm22.955-46.62 20.907-42.602 20.906 42.601z" clip-rule="evenodd"/><path fill="#fff" d="M597.799 77.225c-5.852-7.462-12.918-13.512-26.114-13.512-13.705 0-23.701 10.975-23.701 26.291 0 15.156 9.996 26.281 23.701 26.281 13.196 0 20.262-6.19 26.114-13.636v21.209c-7.03 5.385-15.983 8.55-26.114 8.55-24.346 0-41.92-17.897-41.92-42.403 0-24.669 17.574-42.404 41.92-42.404 10.097 0 19.097 3.07 26.114 8.424zm-104.774 53.087H474.37V49.737h18.655v7.72c3.594-4.027 6.585-6.381 9.015-7.526 2.876-1.355 6.054-2.229 9.786-2.229s10.031 1.526 15.289 4.748l-8.48 16.96c-3.562-2.544-6.954-3.731-10.346-3.731q-15.264 0-15.264 22.896zM241.07 73.621c11.965 3.058 21.855 5.509 42.439 10.073-20.584 4.565-30.474 7.016-42.439 10.073a11.38 11.38 0 0 0-8.203 8.202c-3.057 11.962-5.508 21.856-10.072 42.44-4.565-20.584-7.016-30.478-10.073-42.44a11.38 11.38 0 0 0-8.202-8.202c-11.966-3.057-21.855-5.508-42.44-10.073 20.585-4.564 30.474-7.015 42.44-10.073a11.38 11.38 0 0 0 8.202-8.201c3.057-11.962 5.508-21.857 10.073-42.44 4.564 20.583 7.015 30.478 10.072 42.44a11.38 11.38 0 0 0 8.203 8.201"/><path fill="#fff" fill-rule="evenodd" d="m130.358 80.355 3.389 3.34-3.389 3.339c-31.202-2.26-60.598-2.579-107.962-3.093-6.994-.076-14.38-.156-22.22-.247 7.723-.09 15.004-.17 21.904-.244 47.549-.516 77.006-.836 108.278-3.095" clip-rule="evenodd"/><path fill="#2F2C36" d="M846.661 149.727 893.698 8.103h11.248L858.25 149.727z"/><path fill="#BFB9C8" d="M971.998 128.017V46h8.671v82.017zm8.085 0v-7.85h39.837v7.85zm0-38.313v-7.85h36.677v7.85zm0-35.854V46h39.717v7.85zm51.057 74.167 23.91-33.744 16.87-24.84h9.84l-22.14 31.519-18.4 27.065zm42.07 0-18.16-27.065-22.38-31.519h9.84l16.87 24.84 23.79 33.744zm55.53 0-.59-9.256v-21.91c0-4.765-.54-8.71-1.64-11.834q-1.635-4.804-5.04-7.147c-2.26-1.563-5.23-2.344-8.9-2.344-3.52 0-6.6.703-9.26 2.11q-3.87 2.107-6.21 6.444l-7.38-3.164c1.64-2.734 3.56-5.077 5.74-7.03q3.285-2.93 7.62-4.335c2.89-1.016 6.05-1.523 9.49-1.523 5.39 0 9.8 1.054 13.24 3.163 3.51 2.109 6.13 5.273 7.85 9.49 1.8 4.219 2.69 9.491 2.69 15.818v31.518zm-17.81 1.406q-10.32 0-16.17-4.686c-3.83-3.203-5.74-7.616-5.74-13.24 0-5.859 1.95-10.389 5.86-13.592 3.9-3.202 9.33-4.804 16.28-4.804h17.23v7.148h-15.59c-5.54 0-9.53.976-11.95 2.929q-3.63 2.93-3.63 8.202 0 5.037 3.63 7.85t10.08 2.812c3.59 0 6.68-.781 9.25-2.343 2.58-1.641 4.54-3.867 5.86-6.679 1.41-2.89 2.11-6.21 2.11-9.959h5.98c0 7.967-2.03 14.372-6.1 19.215q-5.97 7.147-17.1 7.147m40.76-1.406V69.434h7.61l.47 10.779v47.804zm41.59 0V98.022l8.21-3.515v33.51zm41.6 0V98.022l8.2-3.515v33.51zm-41.6-29.995q0-9.255-2.22-13.943c-1.41-3.202-3.36-5.39-5.86-6.56-2.5-1.25-5.31-1.876-8.44-1.876-5.31 0-9.49 1.953-12.53 5.859-2.97 3.905-4.46 9.334-4.46 16.286h-4.45q0-9.373 2.7-15.935c1.79-4.452 4.41-7.85 7.85-10.193 3.43-2.422 7.61-3.632 12.53-3.632 7.03 0 12.66 2.187 16.88 6.56q6.315 6.563 6.21 19.92zm41.6 0c0-6.17-.74-10.818-2.23-13.943-1.4-3.202-3.36-5.39-5.86-6.56q-3.63-1.876-8.43-1.876-7.965 0-12.42 5.859c-2.97 3.905-4.45 9.334-4.45 16.286h-4.46q0-9.373 2.58-15.935c1.8-4.452 4.41-7.85 7.85-10.193q5.16-3.632 12.54-3.632c7.03 0 12.65 2.187 16.87 6.56q6.33 6.563 6.21 19.92zm24.15 53.429V69.434h7.62l.46 10.779v71.238zm28.36-22.028c-4.93 0-9.3-1.288-13.13-3.866q-5.625-3.984-8.79-10.897c-2.03-4.686-3.04-9.998-3.04-15.934 0-6.015 1.01-11.327 3.04-15.935q3.165-6.913 8.79-10.78c3.83-2.656 8.2-3.983 13.13-3.983 5.15 0 9.72 1.327 13.7 3.983 3.99 2.578 7.11 6.171 9.38 10.78q3.39 6.912 3.39 15.935 0 8.904-3.39 15.934c-2.27 4.609-5.39 8.241-9.38 10.897-3.98 2.578-8.55 3.866-13.7 3.866m-1.76-7.381c3.9 0 7.34-.977 10.31-2.929 2.97-2.031 5.31-4.804 7.03-8.319q2.58-5.273 2.58-12.068 0-6.797-2.58-12.069c-1.64-3.515-3.95-6.249-6.91-8.202q-4.455-3.046-10.32-3.046-5.385 0-9.6 3.046c-2.82 1.953-5.04 4.687-6.68 8.202-1.56 3.515-2.35 7.538-2.35 12.069 0 4.53.79 8.553 2.35 12.068 1.64 3.515 3.83 6.288 6.56 8.319 2.81 1.952 6.01 2.929 9.61 2.929m41.81 5.975V46h8.09v82.017zm50.6 1.406q-8.43 0-15-3.866c-4.37-2.656-7.81-6.288-10.31-10.897q-3.63-6.913-3.63-15.934 0-9.023 3.63-15.935c2.5-4.609 5.9-8.202 10.19-10.78 4.3-2.656 9.22-3.983 14.77-3.983 5.47 0 10.15 1.366 14.06 4.1 3.9 2.656 6.91 6.406 9.02 11.248 2.19 4.765 3.28 10.311 3.28 16.638h-8.32c0-4.999-.7-9.295-2.11-12.888q-1.995-5.507-6.09-8.553-3.99-3.047-9.96-3.047c-3.98 0-7.5.977-10.54 2.93-3.05 1.952-5.43 4.686-7.15 8.201q-2.58 5.156-2.58 12.186 0 6.795 2.7 12.068c1.87 3.437 4.37 6.132 7.49 8.085 3.13 1.952 6.72 2.929 10.78 2.929 4.3 0 7.93-1.055 10.9-3.164 3.05-2.109 5.39-4.843 7.03-8.202l7.15 3.984a30.2 30.2 0 0 1-5.98 7.733q-3.51 3.398-8.43 5.273c-3.28 1.25-6.92 1.874-10.9 1.874m-23.43-29.409V92.75h44.05v7.264zm127.12 28.003-.59-9.256v-21.91c0-4.765-.54-8.71-1.64-11.834q-1.635-4.804-5.04-7.147c-2.26-1.563-5.23-2.344-8.9-2.344-3.52 0-6.6.703-9.26 2.11q-3.855 2.107-6.21 6.444l-7.38-3.164c1.64-2.734 3.56-5.077 5.74-7.03q3.285-2.93 7.62-4.335c2.89-1.016 6.05-1.523 9.49-1.523 5.39 0 9.8 1.054 13.24 3.163 3.51 2.109 6.13 5.273 7.85 9.49 1.8 4.219 2.69 9.491 2.69 15.818v31.518zm-17.81 1.406q-10.305 0-16.17-4.686c-3.83-3.203-5.74-7.616-5.74-13.24 0-5.859 1.95-10.389 5.86-13.592 3.9-3.202 9.33-4.804 16.28-4.804h17.23v7.148h-15.59c-5.54 0-9.53.976-11.95 2.929q-3.63 2.93-3.63 8.202 0 5.037 3.63 7.85t10.08 2.812c3.59 0 6.68-.781 9.26-2.343 2.57-1.641 4.53-3.867 5.85-6.679 1.41-2.89 2.11-6.21 2.11-9.959h5.98q0 11.95-6.09 19.215c-3.99 4.765-9.69 7.147-17.11 7.147m41.35 22.028V69.434h7.61l.47 10.779v71.238zm28.35-22.028c-4.92 0-9.29-1.288-13.12-3.866q-5.625-3.984-8.79-10.897c-2.03-4.686-3.05-9.998-3.05-15.934 0-6.015 1.02-11.327 3.05-15.935q3.165-6.913 8.79-10.78c3.83-2.656 8.2-3.983 13.12-3.983q7.74 0 13.71 3.983c3.98 2.578 7.11 6.171 9.37 10.78 2.27 4.608 3.4 9.92 3.4 15.935 0 5.936-1.13 11.248-3.4 15.934-2.26 4.609-5.39 8.241-9.37 10.897q-5.97 3.866-13.71 3.866m-1.76-7.381c3.91 0 7.35-.977 10.31-2.929 2.97-2.031 5.32-4.804 7.03-8.319q2.58-5.273 2.58-12.068 0-6.797-2.58-12.069c-1.64-3.515-3.94-6.249-6.91-8.202-2.97-2.03-6.4-3.046-10.31-3.046-3.59 0-6.8 1.015-9.61 3.046-2.81 1.953-5.04 4.687-6.68 8.202q-2.34 5.273-2.34 12.069 0 6.795 2.34 12.068 2.46 5.273 6.57 8.319 4.215 2.928 9.6 2.929m42.4 29.409V69.434h7.62l.47 10.779v71.238zm28.36-22.028c-4.92 0-9.3-1.288-13.13-3.866-3.75-2.656-6.67-6.288-8.78-10.897-2.03-4.686-3.05-9.998-3.05-15.934 0-6.015 1.02-11.327 3.05-15.935 2.11-4.609 5.03-8.202 8.78-10.78 3.83-2.656 8.21-3.983 13.13-3.983q7.725 0 13.71 3.983c3.98 2.578 7.1 6.171 9.37 10.78 2.26 4.608 3.4 9.92 3.4 15.935 0 5.936-1.14 11.248-3.4 15.934-2.27 4.609-5.39 8.241-9.37 10.897q-5.985 3.866-13.71 3.866m-1.76-7.381c3.91 0 7.34-.977 10.31-2.929 2.97-2.031 5.31-4.804 7.03-8.319q2.58-5.273 2.58-12.068 0-6.797-2.58-12.069c-1.64-3.515-3.94-6.249-6.91-8.202-2.97-2.03-6.41-3.046-10.31-3.046-3.6 0-6.8 1.015-9.61 3.046-2.81 1.953-5.04 4.687-6.68 8.202q-2.34 5.273-2.34 12.069 0 6.795 2.34 12.068c1.64 3.515 3.83 6.288 6.56 8.319 2.81 1.952 6.02 2.929 9.61 2.929"/></svg>
